X: 31047
T: Paddy Cronin's
R: reel
M: 4/4
K: Dmajor
|:B|AD{G}ED A3B|AD{G}ED EFGB|A2^GB A2AB|=cBcG EFG:|
|:E|{G}ED AD BDAD|{G}ED =cG EFGE|{G}ED AD BDAB|=cBcG EFG:|
A|:df~f2 dfec|dcdA FDFA|(3Bcd ef ~e3d|1 cABG A2FA:|2 cABG A2A||

